build/img/icon-f.svg

<svg width="33" height="32" viewBox="0 0 33 32" fill="none" xmlns="http://www.w3.org/2000/svg">
<path d="M33 16C33 7.1625 25.6137 0 16.5 0C7.38633 0 0 7.1625 0 16C0 24.8375 7.38633 32 16.5 32C16.5967 32 16.6934 32 16.79 31.9937V19.5438H13.2451V15.5375H16.79V12.5875C16.79 9.16875 18.9428 7.30625 22.0881 7.30625C23.5963 7.30625 24.8918 7.4125 25.2656 7.4625V11.0375H23.1C21.392 11.0375 21.0568 11.825 21.0568 12.9812V15.5312H25.1496L24.6146 19.5375H21.0568V31.3813C27.9533 29.4625 33 23.3062 33 16Z" fill="#C4B192"/>
</svg>

<svg width="33" height="32" fill="none" xmlns="http://www.w3.org/2000/svg"><path d="M33 16c0-8.838-7.386-16-16.5-16S0 7.162 0 16c0 8.837 7.386 16 16.5 16 .097 0 .193 0 .29-.006v-12.45h-3.545v-4.007h3.545v-2.95c0-3.418 2.153-5.28 5.298-5.28 1.508 0 2.804.105 3.178.155v3.575H23.1c-1.708 0-2.043.788-2.043 1.944v2.55h4.093l-.535 4.007h-3.558V31.38C27.953 29.462 33 23.306 33 16z" fill="#C4B192"/></svg>
